korla/apps/scalable/guake-prefs.svg

<!DOCTYPE svg  PUBLIC '-//W3C//DTD SVG 1.1//EN'  'http://www.w3.org/Graphics/SVG/1.1/DTD/svg11.dtd'>
<svg style="clip-rule:evenodd;fill-rule:evenodd;stroke-linecap:round;stroke-linejoin:round;stroke-miterlimit:1.5" version="1.1" viewBox="0 0 48 48" xmlns="http://www.w3.org/2000/svg">
 <g transform="translate(-384.571 -500.298)">
  <rect x="386.571" y="508.198" width="44" height="33.201" style="fill-opacity:.666667"/>
  <rect x="386.571" y="507.197" width="44" height="33.201" style="fill:url(#_Linear1)"/>
 </g>
 <path d="m32.943 23.001c-0.028-0.253-0.323-0.444-0.578-0.444-0.825 0-1.557-0.484-1.864-1.233-0.313-0.767-0.111-1.661 0.504-2.225 0.193-0.177 0.217-0.473 0.054-0.679-0.422-0.536-0.902-1.02-1.425-1.44-0.206-0.165-0.507-0.142-0.684 0.055-0.537 0.594-1.501 0.815-2.245 0.505-0.775-0.326-1.264-1.112-1.216-1.954 0.016-0.265-0.178-0.495-0.442-0.526-0.672-0.078-1.35-0.08-2.024-5e-3 -0.261 0.028-0.455 0.253-0.446 0.514 0.029 0.835-0.465 1.606-1.232 1.921-0.736 0.3-1.693 0.081-2.228-0.508-0.177-0.193-0.473-0.217-0.679-0.057-0.54 0.424-1.03 0.908-1.456 1.44-0.167 0.206-0.142 0.506 0.053 0.684 0.627 0.567 0.829 1.47 0.504 2.245-0.311 0.74-1.079 1.217-1.959 1.217-0.285-9e-3 -0.488 0.182-0.52 0.442-0.079 0.676-0.08 1.365-3e-3 2.047 0.028 0.254 0.332 0.442 0.59 0.442 0.783-0.02 1.536 0.465 1.852 1.233 0.314 0.768 0.112 1.662-0.504 2.226-0.192 0.177-0.217 0.472-0.054 0.678 0.418 0.533 0.898 1.017 1.423 1.441 0.207 0.166 0.507 0.142 0.685-0.055 0.539-0.595 1.502-0.816 2.244-0.504 0.777 0.325 1.265 1.11 1.218 1.953-0.016 0.265 0.178 0.496 0.441 0.526 0.344 0.04 0.69 0.06 1.037 0.06 0.329 0 0.659-0.018 0.988-0.055 0.261-0.029 0.454-0.253 0.446-0.515-0.031-0.834 0.465-1.606 1.231-1.919 0.741-0.303 1.694-0.082 2.229 0.507 0.178 0.193 0.472 0.217 0.679 0.056 0.539-0.422 1.028-0.906 1.456-1.439 0.166-0.206 0.143-0.506-0.054-0.684-0.626-0.567-0.829-1.47-0.504-2.245 0.306-0.73 1.046-1.22 1.841-1.22l0.112 3e-3c0.258 0.021 0.495-0.178 0.526-0.442 0.08-0.676 0.081-1.365 4e-3 -2.046zm-8.929 4.02c-1.655 0-3.002-1.347-3.002-3.002s1.347-3.002 3.002-3.002c1.656 0 3.002 1.347 3.002 3.002s-1.346 3.002-3.002 3.002z" style="fill:rgb(118,224,73)"/>
 <path d="m4.261 9.487h13.829" style="fill:none;stroke-opacity:.27451;stroke-width:2.46px;stroke:rgb(118,224,73)"/>
 <defs>
  <linearGradient id="_Linear1" x2="1" gradientTransform="matrix(2.09279e-15,-34.1778,34.1778,2.09279e-15,409.571,541.375)" gradientUnits="userSpaceOnUse">
   <stop style="stop-color:rgb(42,44,47)" offset="0"/>
   <stop style="stop-color:rgb(66,70,73)" offset="1"/>
  </linearGradient>
 </defs>
</svg>

<?xml version="1.0" encoding="UTF-8" standalone="no"?>
<!DOCTYPE svg PUBLIC "-//W3C//DTD SVG 1.1//EN" "http://www.w3.org/Graphics/SVG/1.1/DTD/svg11.dtd">
<svg width="100%" height="100%" viewBox="0 0 48 48" version="1.1" xmlns="http://www.w3.org/2000/svg" xmlns:xlink="http://www.w3.org/1999/xlink" xml:space="preserve" xmlns:serif="http://www.serif.com/" style="fill-rule:evenodd;clip-rule:evenodd;stroke-linecap:round;stroke-linejoin:round;stroke-miterlimit:1.5;">
    <g id="g11" transform="matrix(1,0,0,1,-384.571,-500.298)">
        <rect id="rect7" x="386.571" y="508.198" width="44" height="33.201" style="fill-opacity:0.666667;"/>
        <rect id="rect9" x="386.571" y="507.197" width="44" height="33.201" style="fill:url(#_Linear1);"/>
    </g>
    <path id="path21" d="M32.943,23.001C32.915,22.748 32.62,22.557 32.365,22.557C31.54,22.557 30.808,22.073 30.501,21.324C30.188,20.557 30.39,19.663 31.005,19.099C31.198,18.922 31.222,18.626 31.059,18.42C30.637,17.884 30.157,17.4 29.634,16.98C29.428,16.815 29.127,16.838 28.95,17.035C28.413,17.629 27.449,17.85 26.705,17.54C25.93,17.214 25.441,16.428 25.489,15.586C25.505,15.321 25.311,15.091 25.047,15.06C24.375,14.982 23.697,14.98 23.023,15.055C22.762,15.083 22.568,15.308 22.577,15.569C22.606,16.404 22.112,17.175 21.345,17.49C20.609,17.79 19.652,17.571 19.117,16.982C18.94,16.789 18.644,16.765 18.438,16.925C17.898,17.349 17.408,17.833 16.982,18.365C16.815,18.571 16.84,18.871 17.035,19.049C17.662,19.616 17.864,20.519 17.539,21.294C17.228,22.034 16.46,22.511 15.58,22.511C15.295,22.502 15.092,22.693 15.06,22.953C14.981,23.629 14.98,24.318 15.057,25C15.085,25.254 15.389,25.442 15.647,25.442C16.43,25.422 17.183,25.907 17.499,26.675C17.813,27.443 17.611,28.337 16.995,28.901C16.803,29.078 16.778,29.373 16.941,29.579C17.359,30.112 17.839,30.596 18.364,31.02C18.571,31.186 18.871,31.162 19.049,30.965C19.588,30.37 20.551,30.149 21.293,30.461C22.07,30.786 22.558,31.571 22.511,32.414C22.495,32.679 22.689,32.91 22.952,32.94C23.296,32.98 23.642,33 23.989,33C24.318,33 24.648,32.982 24.977,32.945C25.238,32.916 25.431,32.692 25.423,32.43C25.392,31.596 25.888,30.824 26.654,30.511C27.395,30.208 28.348,30.429 28.883,31.018C29.061,31.211 29.355,31.235 29.562,31.074C30.101,30.652 30.59,30.168 31.018,29.635C31.184,29.429 31.161,29.129 30.964,28.951C30.338,28.384 30.135,27.481 30.46,26.706C30.766,25.976 31.506,25.486 32.301,25.486L32.413,25.489C32.671,25.51 32.908,25.311 32.939,25.047C33.019,24.371 33.02,23.682 32.943,23.001L32.943,23.001ZM24.014,27.021C22.359,27.021 21.012,25.674 21.012,24.019C21.012,22.364 22.359,21.017 24.014,21.017C25.67,21.017 27.016,22.364 27.016,24.019C27.016,25.674 25.67,27.021 24.014,27.021Z" style="fill:rgb(118,224,73);"/>
    <path d="M4.261,9.487L18.09,9.487" style="fill:none;stroke:rgb(118,224,73);stroke-opacity:0.27451;stroke-width:2.46px;"/>
    <defs>
        <linearGradient id="_Linear1" x1="0" y1="0" x2="1" y2="0" gradientUnits="userSpaceOnUse" gradientTransform="matrix(2.09279e-15,-34.1778,34.1778,2.09279e-15,409.571,541.375)"><stop offset="0" style="stop-color:rgb(42,44,47);stop-opacity:1"/><stop offset="1" style="stop-color:rgb(66,70,73);stop-opacity:1"/></linearGradient>
    </defs>
</svg>
